file/flix.svg

<svg clip-rule="evenodd" fill-rule="evenodd" stroke-linejoin="round" stroke-miterlimit="1.41421" viewBox="0 0 560 400" xmlns="http://www.w3.org/2000/svg"><path d="m4 83.6h87.9v31.6h-49v22h42.2v28h-42.2v50h-38.9zm134.8 0h-40.6v131.6h90.8v-32.7h-50.3v-98.9zm92.8 0h3.2v131.6h-39.6v-131.6zm-.6 21.5c0-8.8-7.1-15.9-15.9-15.9s-15.9 7.1-15.9 15.9 7.1 15.9 15.9 15.9 15.9-7.1 15.9-15.9zm128.2-21.5h-36.4l-20.7 32-19.5-32h-2.7-44.9l43.5 64.8-42.7 66.8h37.2l24.3-39.1 26.2 38.9h44.8l-44.9-71.7zm36.8 120.5c0 7.4-5.7 12.6-12.8 12.6-7.2 0-12.7-5.2-12.7-12.6s5.5-12.6 12.7-12.6c7.1 0 12.8 5.2 12.8 12.6zm-2.9 0c0-5.9-4.3-10-9.9-10-5.7 0-10 4.1-10 10 0 6 4.3 10.1 10 10.1 5.6 0 9.9-4.1 9.9-10.1zm-7 .9 3.7 5.3-2.5 1.7-4.1-6.2h-1.8v6.1h-3v-15.5h4.8c2.6 0 5.2 1.8 5.2 4.7 0 1.8-.9 3.2-2.3 3.9zm-.7-3.9c0-1.3-.9-2.1-2.5-2.1h-1.4v4.2h1.4c1.5 0 2.5-.8 2.5-2.1z" fill-rule="nonzero" transform="matrix(.918367 0 0 .918367 96.3265 62.1071)"/></svg>

<?xml version="1.0" encoding="UTF-8" standalone="no"?>
<!DOCTYPE svg PUBLIC "-//W3C//DTD SVG 1.1//EN" "http://www.w3.org/Graphics/SVG/1.1/DTD/svg11.dtd">
<svg width="100%" height="100%" viewBox="0 0 560 400" version="1.1" xmlns="http://www.w3.org/2000/svg" xmlns:xlink="http://www.w3.org/1999/xlink" xml:space="preserve" xmlns:serif="http://www.serif.com/" style="fill-rule:evenodd;clip-rule:evenodd;stroke-linejoin:round;stroke-miterlimit:1.41421;">
    <g id="logosvg.com_1_" transform="matrix(0.918367,0,0,0.918367,96.3265,62.1071)">
        <path d="M4,83.6L91.9,83.6L91.9,115.2L42.9,115.2L42.9,137.2L85.1,137.2L85.1,165.2L42.9,165.2L42.9,215.2L4,215.2L4,83.6ZM138.8,83.6L98.2,83.6L98.2,215.2L189,215.2L189,182.5L138.7,182.5L138.7,83.6L138.8,83.6ZM231.6,83.6L234.8,83.6L234.8,215.2L195.2,215.2L195.2,83.6L231.6,83.6ZM231,105.1C231,96.3 223.9,89.2 215.1,89.2C206.3,89.2 199.2,96.3 199.2,105.1C199.2,113.9 206.3,121 215.1,121C223.9,121 231,113.9 231,105.1ZM359.2,83.6L322.8,83.6L302.1,115.6L282.6,83.6L279.9,83.6L235,83.6L278.5,148.4L235.8,215.2L273,215.2L297.3,176.1L323.5,215L368.3,215L323.4,143.3L359.2,83.6ZM396,204.1C396,211.5 390.3,216.7 383.2,216.7C376,216.7 370.5,211.5 370.5,204.1C370.5,196.7 376,191.5 383.2,191.5C390.3,191.5 396,196.7 396,204.1ZM393.1,204.1C393.1,198.2 388.8,194.1 383.2,194.1C377.5,194.1 373.2,198.2 373.2,204.1C373.2,210.1 377.5,214.2 383.2,214.2C388.8,214.2 393.1,210.1 393.1,204.1ZM386.1,205L389.8,210.3L387.3,212L383.2,205.8L381.4,205.8L381.4,211.9L378.4,211.9L378.4,196.4L383.2,196.4C385.8,196.4 388.4,198.2 388.4,201.1C388.4,202.9 387.5,204.3 386.1,205ZM385.4,201.1C385.4,199.8 384.5,199 382.9,199L381.5,199L381.5,203.2L382.9,203.2C384.4,203.2 385.4,202.4 385.4,201.1Z" style="fill-rule:nonzero;"/>
    </g>
</svg>
